src/icons/svg/vendor-info.svg

<?xml version="1.0" standalone="no"?><!DOCTYPE svg PUBLIC "-//W3C//DTD SVG 1.1//EN" "http://www.w3.org/Graphics/SVG/1.1/DTD/svg11.dtd"><svg t="1560846212381" class="icon" style="" viewBox="0 0 1238 1024" version="1.1" xmlns="http://www.w3.org/2000/svg" p-id="3922" xmlns:xlink="http://www.w3.org/1999/xlink" width="154.75" height="128"><defs><style type="text/css"></style></defs><path d="M1024 853.333333 853.333333 853.333333 853.333333 768 1024 768 1024 853.333333ZM853.333333 597.333333 1024 597.333333 1024 682.666667 853.333333 682.666667 853.333333 597.333333ZM1152 1024 1066.666667 1024 640.085333 1024C640.042667 1024 640.042667 1024 640 1024L256 1024C255.957333 1024 255.957333 1024 255.914667 1024L0 1024 0 938.666667 85.333333 938.666667 85.333333 853.333333 85.333333 810.666667 85.333333 170.666667C85.333333 76.416 161.749333 0 256 0L640 0C734.250667 0 810.666667 76.416 810.666667 170.666667L810.666667 810.666667 810.666667 810.666667 810.666667 938.666667 1066.666667 938.666667 1066.666667 597.333333C1066.666667 550.186667 1028.48 512 981.333333 512L810.666667 512 810.666667 426.666667 981.333333 426.666667C1075.584 426.666667 1152 503.082667 1152 597.333333L1152 938.666667 1237.333333 938.666667 1237.333333 1024 1152 1024ZM725.333333 853.333333 725.333333 810.666667 725.333333 170.666667C725.333333 123.562667 687.146667 85.333333 640 85.333333L256 85.333333C208.853333 85.333333 170.666667 123.562667 170.666667 170.666667L170.666667 853.333333 170.666667 853.333333 170.666667 938.666667 256 938.666667 597.333333 938.666667 640 938.666667 725.333333 938.666667 725.333333 853.333333ZM469.333333 810.666667 469.333333 725.333333 640 725.333333 640 810.666667 597.333333 810.666667 469.333333 810.666667ZM469.333333 469.333333 640 469.333333 640 554.666667 469.333333 554.666667 469.333333 469.333333ZM469.333333 213.333333 640 213.333333 640 298.666667 469.333333 298.666667 469.333333 213.333333ZM256 725.333333 426.666667 725.333333 426.666667 810.666667 256 810.666667 256 725.333333ZM256 469.333333 426.666667 469.333333 426.666667 554.666667 256 554.666667 256 469.333333ZM256 213.333333 426.666667 213.333333 426.666667 298.666667 256 298.666667 256 213.333333Z" p-id="3923"></path></svg>

<svg class="icon" viewBox="0 0 1238 1024" xmlns="http://www.w3.org/2000/svg" width="154.75" height="128"><defs><style/></defs><path d="M1024 853.333H853.333V768H1024v85.333zm-170.667-256H1024v85.334H853.333v-85.334zM1152 1024H0v-85.333h85.333v-768C85.333 76.416 161.75 0 256 0h384c94.25 0 170.667 76.416 170.667 170.667v768h256V597.333c0-47.146-38.187-85.333-85.334-85.333H810.667v-85.333h170.666c94.251 0 170.667 76.416 170.667 170.666v341.334h85.333V1024H1152zM725.333 853.333V170.667c0-47.104-38.186-85.334-85.333-85.334H256c-47.147 0-85.333 38.23-85.333 85.334v768h554.666v-85.334zm-256-42.666v-85.334H640v85.334H469.333zm0-341.334H640v85.334H469.333v-85.334zm0-256H640v85.334H469.333v-85.334zM256 725.333h170.667v85.334H256v-85.334zm0-256h170.667v85.334H256v-85.334zm0-256h170.667v85.334H256v-85.334z"/></svg>
